X:2861
T:D\ol'n
C:anon.
O:Norway
A:Valdres
Z:Transcribed by Frank Nordberg - http://www.musicaviva.com
F:http://abc.musicaviva.com/tunes/norway/doeln/doeln-1.abc
M:2/4
L:1/8
Q:1/4=103
K:F
z>C|F>E F>A|c2A>F|d>B d>B|c>A B>G|
w:\AA d\ol-'n g\aar i gat-um alt me sitt us-le sm\or, \aa sm\or, \aa
F>E F>A|c2A>F|d>B d>B|c2 z>A|
w:d\ol-'n g\aar i gat-um alt me sitt us-le sm\or. K\aa
B>B d>B|c>A c>A|B>G B>G|A>F Hc z/ B/|
w:vil du ha for sm\o-re ditt, en-d\aa de \ae s\aa tr\aatt og kvitt Hei
A>A (3GAG|F>A HC z/ B/|A>B G>A|F2 z|]
w:hopp kon fa-de-ri-la-la-la, en-d\aa du \ae ein d\ol.
W:
W:\AA d\ol'n g\aar i gatum alt me sitt usle sm\or, \aa sm\or,
W:\aa d\ol'n g\aar i gatum alt me sitt usle sm\or.
W:K\aa vil du ha for sm\ore ditt,
W:end\aa de \ae s\aa tr\aatt og kvitt
W:  Hei hopp kon faderilalala,
W:  end\aa du \ae ein d\ol.
W:
W:\AA tie skjelling m\orke, d\ae ha e tenkt \aa f\aa.
W:D\ae lik\ovel eg byr de sju,
W:du f\aar kje meir, det e kan tru.
W:  Nei hopp kon faderilalala,
W:  end\aa du \ae ein d\ol.
W:
W:
W:  From Musica Viva - http://www.musicaviva.com
W:  the Internet center for free sheet music downloads.
